svgs/sharp-regular/grid-2-plus.svg

<svg xmlns="http://www.w3.org/2000/svg" viewBox="0 0 512 512"><!--! Font Awesome Pro 6.6.0 by @fontawesome - https://fontawesome.com License - https://fontawesome.com/license (Commercial License) Copyright 2024 Fonticons, Inc. --><path d="M176 80L80 80l0 96 96 0 0-96zM80 32l96 0 48 0 0 48 0 96 0 48-48 0-96 0-48 0 0-48 0-96 0-48 48 0zm96 304l-96 0 0 96 96 0 0-96zM80 288l96 0 48 0 0 48 0 96 0 48-48 0-96 0-48 0 0-48 0-96 0-48 48 0zM336 80l0 96 96 0 0-96-96 0zM288 32l48 0 96 0 48 0 0 48 0 96 0 48-48 0-96 0-48 0 0-48 0-96 0-48zM408 272l0 24 0 64 64 0 24 0 0 48-24 0-64 0 0 64 0 24-48 0 0-24 0-64-64 0-24 0 0-48 24 0 64 0 0-64 0-24 48 0z"/></svg>

<svg xmlns="http://www.w3.org/2000/svg" viewBox="0 0 512 512"><!--! Font Awesome Pro 6.4.2 by @fontawesome - https://fontawesome.com License - https://fontawesome.com/license (Commercial License) Copyright 2023 Fonticons, Inc. --><path d="M176 80H80v96h96V80zM80 32h96 48V80v96 48H176 80 32V176 80 32H80zm96 304H80v96h96V336zM80 288h96 48v48 96 48H176 80 32V432 336 288H80zM336 80v96h96V80H336zM288 32h48 96 48V80v96 48H432 336 288V176 80 32zM408 272v24 64h64 24v48H472 408v64 24H360V472 408H296 272V360h24 64V296 272h48z"/></svg>
